packages/core/src/svgs/wallets/mono/rabby.svg

<svg width="24" height="24" viewBox="0 0 24 24" fill="none" xmlns="http://www.w3.org/2000/svg">
<path d="M21.8978 13.2993C22.6834 11.4733 18.7999 6.37168 15.0899 4.24622C12.7514 2.59967 10.3147 2.82588 9.82114 3.54883C8.73813 5.13543 13.4075 6.47988 16.5303 8.04865C15.8591 8.35208 15.2264 8.89649 14.8544 9.59272C13.6902 8.27015 11.1349 7.13128 8.13664 8.04865C6.11606 8.66692 4.43689 10.1244 3.78788 12.3258C3.63015 12.2529 3.45555 12.2123 3.27187 12.2123C2.56947 12.2123 2 12.8049 2 13.5358C2 14.2668 2.56947 14.8593 3.27187 14.8593C3.40209 14.8593 3.80918 14.7684 3.80918 14.7684L10.3147 14.8175C7.71303 19.1122 5.65694 19.7401 5.65694 20.4841C5.65694 21.2281 7.62419 21.0265 8.36293 20.7491C11.899 19.4215 15.697 15.2837 16.3487 14.0926C19.0855 14.4479 21.3856 14.49 21.8978 13.2993Z" fill="url(#paint0_linear_134_412)"/>
<path fill-rule="evenodd" clip-rule="evenodd" d="M16.53 8.04894C16.5302 8.04901 16.5303 8.04908 16.5306 8.04915C16.6753 7.98981 16.6519 7.76739 16.6121 7.59269C16.5208 7.19112 14.9446 5.57157 13.4644 4.84617C11.4477 3.85772 9.96257 3.90861 9.74298 4.36412C10.1538 5.24031 12.0584 6.06293 14.0476 6.92217C14.8963 7.2887 15.7604 7.66188 16.5304 8.04872C16.5303 8.04879 16.5301 8.04887 16.53 8.04894Z" fill="url(#paint1_linear_134_412)"/>
<path fill-rule="evenodd" clip-rule="evenodd" d="M13.9706 16.8673C13.5627 16.7051 13.102 16.5563 12.5782 16.4213C13.1367 15.3813 13.2539 13.8418 12.7264 12.8684C11.9862 11.5024 11.0568 10.7753 8.89745 10.7753C7.70977 10.7753 4.51202 11.1916 4.45528 13.9692C4.44933 14.2607 4.45514 14.5278 4.47542 14.7734L10.3147 14.8175C9.52748 16.1169 8.79018 17.0808 8.14472 17.8136C8.91971 18.0202 9.55923 18.1937 10.1464 18.353C10.7035 18.5042 11.2135 18.6425 11.7472 18.7842C12.5523 18.1738 13.3092 17.5082 13.9706 16.8673Z" fill="url(#paint2_linear_134_412)"/>
<path d="M3.70997 14.488C3.94847 16.5981 5.10092 17.4251 7.45588 17.6698C9.81076 17.9144 11.1616 17.7503 12.96 17.9205C14.462 18.0628 15.8031 18.8592 16.3007 18.584C16.7484 18.3363 16.4979 17.4413 15.8988 16.8672C15.1222 16.123 14.0473 15.6055 12.156 15.4218C12.5329 14.348 12.4272 12.8423 11.8419 12.0231C10.9954 10.8387 9.43317 10.3032 7.45588 10.5371C5.39003 10.7816 3.41055 11.8399 3.70997 14.488Z" fill="url(#paint3_linear_134_412)"/>
<defs>
<linearGradient id="paint0_linear_134_412" x1="7.90135" y1="11.6822" x2="21.8078" y2="15.4721" gradientUnits="userSpaceOnUse">
<stop stop-color="white"/>
<stop offset="1" stop-color="white"/>
</linearGradient>
<linearGradient id="paint1_linear_134_412" x1="19.4003" y1="11.4088" x2="9.02577" y2="1.4143" gradientUnits="userSpaceOnUse">
<stop stop-color="#8697FF"/>
<stop offset="1" stop-color="#8697FF" stop-opacity="0"/>
</linearGradient>
<linearGradient id="paint2_linear_134_412" x1="14.2482" y1="17.2298" x2="4.47863" y2="11.832" gradientUnits="userSpaceOnUse">
<stop stop-color="#8697FF"/>
<stop offset="1" stop-color="#8697FF" stop-opacity="0"/>
</linearGradient>
<linearGradient id="paint3_linear_134_412" x1="8.7268" y1="11.5749" x2="15.5259" y2="19.8771" gradientUnits="userSpaceOnUse">
<stop stop-color="white"/>
<stop offset="0.983895" stop-color="#D1D8FF"/>
</linearGradient>
</defs>
</svg>

<svg xmlns="http://www.w3.org/2000/svg" width="24" height="24" fill="none" viewBox="0 0 24 24">
    <path fill="url(#rabby__a)" d="M21.898 13.3c.785-1.827-3.098-6.928-6.808-9.054-2.34-1.646-4.775-1.42-5.27-.696-1.083 1.586 3.587 2.93 6.71 4.5-.672.303-1.305.847-1.677 1.544-1.164-1.323-3.72-2.462-6.717-1.544-2.02.618-3.7 2.075-4.35 4.277a1.2 1.2 0 0 0-.515-.114c-.703 0-1.272.593-1.272 1.324 0 .73.57 1.323 1.272 1.323.13 0 .537-.09.537-.09l6.506.049c-2.602 4.294-4.658 4.922-4.658 5.666s1.967.542 2.706.265c3.536-1.327 7.334-5.465 7.986-6.656 2.736.355 5.037.397 5.549-.794"/>
    <path fill="url(#rabby__b)" fill-rule="evenodd" d="M16.53 8.049c.145-.06.122-.282.082-.456-.091-.402-1.667-2.021-3.148-2.747-2.016-.988-3.501-.937-3.721-.482.41.876 2.315 1.699 4.305 2.558.848.367 1.712.74 2.482 1.127" clip-rule="evenodd"/>
    <path fill="url(#rabby__c)" fill-rule="evenodd" d="M13.97 16.867a12 12 0 0 0-1.392-.446c.559-1.04.676-2.58.148-3.553-.74-1.366-1.67-2.093-3.829-2.093-1.187 0-4.385.417-4.442 3.194q-.01.437.02.804l5.84.045c-.788 1.299-1.525 2.263-2.17 2.996.775.206 1.414.38 2.001.539.557.151 1.067.29 1.601.431a25 25 0 0 0 2.224-1.917" clip-rule="evenodd"/>
    <path fill="url(#rabby__d)" d="M3.71 14.488c.238 2.11 1.39 2.937 3.746 3.182 2.355.244 3.706.08 5.504.25 1.502.143 2.843.94 3.34.664.448-.248.198-1.143-.401-1.717-.777-.744-1.852-1.262-3.743-1.445.377-1.074.271-2.58-.314-3.399-.847-1.184-2.409-1.72-4.386-1.486-2.066.245-4.045 1.303-3.746 3.951"/>
    <defs>
        <linearGradient id="rabby__a" x1="7.901" x2="21.808" y1="11.682" y2="15.472" gradientUnits="userSpaceOnUse">
            <stop stop-color="#fff"/>
            <stop offset="1" stop-color="#fff"/>
        </linearGradient>
        <linearGradient id="rabby__b" x1="19.4" x2="9.026" y1="11.409" y2="1.414" gradientUnits="userSpaceOnUse">
            <stop stop-color="#8697FF"/>
            <stop offset="1" stop-color="#8697FF" stop-opacity="0"/>
        </linearGradient>
        <linearGradient id="rabby__c" x1="14.248" x2="4.479" y1="17.23" y2="11.832" gradientUnits="userSpaceOnUse">
            <stop stop-color="#8697FF"/>
            <stop offset="1" stop-color="#8697FF" stop-opacity="0"/>
        </linearGradient>
        <linearGradient id="rabby__d" x1="8.727" x2="15.526" y1="11.575" y2="19.877" gradientUnits="userSpaceOnUse">
            <stop stop-color="#fff"/>
            <stop offset=".984" stop-color="#D1D8FF"/>
        </linearGradient>
    </defs>
</svg>
